www/assets/icons/tablet_mac.svg

<svg width="24" height="24" viewBox="0 0 24 24" xmlns="http://www.w3.org/2000/svg" fill='currentColor'><path d="M19 0H5C3.62 0 2.5 1.12 2.5 2.5V21.5C2.5 22.88 3.62 24 5 24H19C20.38 24 21.5 22.88 21.5 21.5V2.5C21.5 1.12 20.38 0 19 0ZM12 23C11.17 23 10.5 22.33 10.5 21.5C10.5 20.67 11.17 20 12 20C12.83 20 13.5 20.67 13.5 21.5C13.5 22.33 12.83 23 12 23ZM19.5 19H4.5V3H19.5V19Z"/></svg>

<svg xmlns="http://www.w3.org/2000/svg" width="24" height="24" viewBox="0 0 24 24" fill='currentColor'><path d="M19 0H5a2.5 2.5 0 0 0-2.5 2.5v19A2.5 2.5 0 0 0 5 24h14a2.5 2.5 0 0 0 2.5-2.5v-19A2.5 2.5 0 0 0 19 0m-7 23c-.83 0-1.5-.67-1.5-1.5S11.17 20 12 20s1.5.67 1.5 1.5S12.83 23 12 23m7.5-4h-15V3h15z"/></svg>
